svgs/regular/location-pin-lock.svg

<svg xmlns="http://www.w3.org/2000/svg" viewBox="0 0 512 512"><!--! Font Awesome Pro 6.3.0 by @fontawesome - https://fontawesome.com License - https://fontawesome.com/license (Commercial License) Copyright 2023 Fonticons, Inc. --><path d="M192 451.7c18.5-23.7 41.6-54.7 64-88.1v83.2c-15.3 20.6-29.3 38.6-40.3 52.3c-12.3 15.3-35.1 15.3-47.4 0C117 435 0 279.4 0 192C0 86 86 0 192 0c95.7 0 175 70 189.6 161.5c-16.9 2.8-32.6 9.4-46.1 18.9C329.6 106.3 267.6 48 192 48C112.5 48 48 112.5 48 192c0 12.4 4.5 31.6 15.3 57.2c10.5 24.8 25.4 52.2 42.5 79.9c28.5 46.2 61.5 90.8 86.2 122.6zM224 192a32 32 0 1 0 -64 0 32 32 0 1 0 64 0zm-112 0a80 80 0 1 1 160 0 80 80 0 1 1 -160 0zm288 48c-17.7 0-32 14.3-32 32v48h64V272c0-17.7-14.3-32-32-32zm-80 32c0-44.2 35.8-80 80-80s80 35.8 80 80v48c17.7 0 32 14.3 32 32V480c0 17.7-14.3 32-32 32H320c-17.7 0-32-14.3-32-32V352c0-17.7 14.3-32 32-32V272z"/></svg>

<svg xmlns="http://www.w3.org/2000/svg" viewBox="0 0 512 512"><!--! Font Awesome Pro 6.2.0 by @fontawesome - https://fontawesome.com License - https://fontawesome.com/license (Commercial License) Copyright 2022 Fonticons, Inc. --><path d="M192 451.7C210.5 427.1 233.6 397.1 256 363.7V446.8C240.7 467.4 226.7 485.4 215.7 499.2C203.4 514.5 180.6 514.5 168.3 499.2C116.1 435 0 279.4 0 192C0 85.96 85.96 0 192 0C287.7 0 366.1 69.96 381.6 161.5C364.7 164.3 349 170.9 335.5 180.4C329.6 106.3 267.6 48 191.1 48C112.5 48 47.1 112.5 47.1 192C47.1 204.4 52.49 223.6 63.3 249.2C73.78 274 88.66 301.4 105.8 329.1C134.2 375.3 167.2 419.1 191.1 451.7L192 451.7zM272 192C272 236.2 236.2 272 192 272C147.8 272 112 236.2 112 192C112 147.8 147.8 112 192 112C236.2 112 272 147.8 272 192zM192 160C174.3 160 160 174.3 160 192C160 209.7 174.3 224 192 224C209.7 224 224 209.7 224 192C224 174.3 209.7 160 192 160zM400 192C444.2 192 480 227.8 480 272V320C497.7 320 512 334.3 512 352V480C512 497.7 497.7 512 480 512H320C302.3 512 288 497.7 288 480V352C288 334.3 302.3 320 320 320V272C320 227.8 355.8 192 400 192zM400 240C382.3 240 368 254.3 368 272V320H432V272C432 254.3 417.7 240 400 240z"/></svg>
